X:24
T:Next Door Neighbours. Tho24CDs1792.24
M:6/8
Q:3/8=108
C:"96"
L:1/8
W: First Lady set to the 2d. Gent & turn the 3d .|
W: 1st Gent set to the 2d Lady & turn the 3d :|
W: Lead down the middle up again & cast off :|.
W: Allemand :|
B:Thompson 24 CDs 1792
Z:Village Music Project, Anne Wride, 2017
K:Bb
|:B2BB2b|B2BB2F|GAB cdB|A2FF2A|
B2BB2b|B2BB2F|GAB FGE|D3 [B3B,3]:|
|:[BB,]DF [BB,]DF|[BB,]EG [BB,]EG|E2ec2B|A3F3|
[BB,]DF [BB,]DF|[BB,]EG [BB,]EG|[c2C2]ec2A|B3 [B,3B3]:|


